public/hiring_logo.svg

<svg fill="none" height="168" viewBox="0 0 240 168" width="240" xmlns="http://www.w3.org/2000/svg" xmlns:xlink="http://www.w3.org/1999/xlink"><mask id="a" height="161" maskUnits="userSpaceOnUse" width="240" x="0" y="4"><path clip-rule="evenodd" d="m240 22.6351-17.835-17.83505-5.096 5.09572 8.116 8.11613h-109.315v7.2064h111.355l-10.156 10.1561 5.096 5.0957zm-213.2233 13.3929h-23.48097v-1.1843l10.20917-10.8217c2.8993-3.1035 4.8187-5.5946 4.8187-8.0448 0-1.9601-1.021-3.2669-3.1036-3.2669-2.0827 0-3.3894 1.2659-3.757 4.7371h-7.59556c.28585-7.3098 4.6962-11.0259 11.76096-11.0259 7.1463 0 10.9441 3.8386 10.9441 9.229 0 4.002-2.246 7.0239-5.5129 10.1683l-4.0836 3.9612h9.8007zm10.9586-14.007c0 5.4313 1.5926 8.004 5.1862 8.004s5.0229-2.6544 5.0229-8.0448v-1.1843c0-5.3495-1.5518-8.0447-5.1046-8.0447-3.5119 0-5.1045 2.6543-5.1045 8.0447zm18.5806-.2041c0 9.2698-5.3088 14.7011-13.6394 14.7011-8.1673 0-13.3127-5.2679-13.3127-14.4561v-1.2251c0-9.2291 5.7579-14.4153 13.476-14.4153 7.6773 0 13.4761 4.7779 13.4761 14.2519zm1.814 14.2111h23.481v-6.248h-9.8008l4.0837-3.9612c3.2669-3.1444 5.5129-6.1663 5.5129-10.1683 0-5.3904-3.7978-9.229-10.9442-9.229-7.0647 0-11.475 3.7161-11.7609 11.0259h7.5956c.3675-3.4712 1.6743-4.7371 3.757-4.7371 2.0826 0 3.1035 1.3068 3.1035 3.2669 0 2.4502-1.9193 4.9413-4.8187 8.0448l-10.2091 10.8217zm48.8041 0h-23.4807v-1.1843l10.2091-10.8217c2.8994-3.1035 4.8188-5.5946 4.8188-8.0448 0-1.9601-1.021-3.2669-3.1036-3.2669-2.0827 0-3.3894 1.2659-3.757 4.7371h-7.5956c.2859-7.3098 4.6962-11.0259 11.7609-11.0259 7.1461 0 10.9441 3.8386 10.9441 9.229 0 4.002-2.246 7.0239-5.513 10.1683l-4.0835 3.9612h9.8005zm-92.0293 73.791h-8.55765v9.909h-5.404826v7.882h5.404826c-1.95174 4.954-3.90348 9.233-5.855229 12.836.600539 4.204 1.126009 8.408 1.576409 12.612 1.65148-2.703 3.07775-5.555 4.27882-8.558v19.367h8.55765v-20.493l2.7024 2.702 4.0536-7.657c-.9008-.6-2.252-1.576-4.0536-2.927l-2.7024-2.027v-5.855h4.504v-7.882h-4.504zm13.9625 15.088c-3.4531 3.303-7.0563 6.006-10.8097 8.108 1.8016 2.102 3.5282 4.203 5.1797 6.305 5.1045-3.603 9.3833-6.906 12.8364-9.909l-4.7292-4.504h11.2601l-4.2789 4.504c1.9518 1.502 4.5791 3.604 7.8821 6.306 1.9517 1.501 3.4531 2.627 4.504 3.378l4.9544-6.531c-3.1528-2.402-6.0053-4.504-8.5576-6.305l-2.0268-1.352h9.4584v-8.107h-12.386c-.4504-2.252-.9008-4.579-1.3512-6.981l-9.2333.676c.4504 2.252.9759 4.353 1.5764 6.305h-12.8365v8.107zm7.882 20.269c-1.9517-2.403-3.6783-5.405-5.1796-9.009l-7.4316 3.153c1.8016 4.504 3.9034 8.258 6.3056 11.26-3.303 2.102-7.807 4.054-13.5121 5.856 1.8016 2.252 3.5282 4.729 5.1796 7.431 6.0054-2.252 10.8848-4.654 14.6381-7.206 3.6032 2.252 8.1823 4.504 13.7373 6.756.7507-1.351 2.0268-3.378 3.8284-6.081.6006-.75 1.051-1.351 1.3512-1.801-5.7051-1.502-9.9088-3.153-12.6112-4.955 2.5522-3.152 4.6541-7.056 6.3056-11.71l-7.882-2.703c-1.051 3.303-2.6274 6.306-4.7293 9.009zm27.1053-33.781v52.472h8.7828v-2.252h33.3297v2.252h8.783v-52.472zm37.8335 28.826c-.6-.3-1.126-.525-1.576-.676 0 .751-.075 1.802-.2253 3.153v1.802c-.1502 1.201-.6006 1.726-1.3512 1.576-.9008 0-1.3513-.525-1.3513-1.576v-5.855h7.4318v-6.982h-30.6275v6.982h4.9544c.1502 3.903-1.9517 7.206-6.3056 9.909v-29.502h33.3297v35.357h-27.6997c5.8553-4.054 8.6328-9.309 8.3325-15.764h2.7024v7.882c-.1501 4.504 1.9518 6.681 6.3056 6.531h2.4773c4.0539 0 6.2309-1.577 6.5309-4.73.45-1.951.751-4.203.901-6.756-.901-.15-2.177-.6-3.829-1.351zm-29.0507 8.333c2.1019 2.402 3.9035 4.353 5.4048 5.855h-5.4048zm29.9517-26.799h-26.5737v6.981h26.5737zm48.725 41.887h-8.783v-25.448h33.104v25.448h-8.782v-2.702h-15.539zm-14.188-53.373v8.558h4.504v8.332h-4.504v6.756h.676c.75-.15 1.801-.45 3.152-.9v8.783l-2.026.675c-.751.15-1.352.3-1.802.451v13.512c0 4.353-2.027 6.605-6.08 6.756-1.952.3-4.054.45-6.306.45 0-.15-.075-.525-.225-1.126-.301-1.952-.751-4.279-1.352-6.981h3.604c1.351 0 1.951-.751 1.801-2.252v-8.107c-.45.15-1.276.375-2.477.675-1.051.3-1.877.526-2.477.676l-.676-9.459c.601-.15 1.577-.375 2.928-.675 1.201-.15 2.102-.301 2.702-.451v-8.783h-4.729v-8.332h4.729v-8.558zm5.18 9.234v-7.882h33.78c0 1.201-.075 3.077-.225 5.63-.301 4.954-.451 8.182-.451 9.683 0 5.705-3.003 8.483-9.008 8.333-1.201.15-3.978.225-8.332.225-.15-.901-.451-2.252-.901-4.054-.451-1.952-.826-3.303-1.126-4.053 1.952.15 4.429.225 7.432.225 2.252.15 3.302-.901 3.152-3.153v-1.802c.15-1.201.226-2.252.226-3.152h-9.234c-.15 7.206-3.978 13.362-11.485 18.466-.601-.751-1.576-1.802-2.928-3.153-1.501-1.501-2.552-2.627-3.152-3.378 5.705-3.603 8.632-7.582 8.782-11.935zm9.008 26.573v7.432h15.539v-7.432zm32.96-33.555v7.657h2.252v30.402h-1.351c-.601.15-1.051.226-1.351.226l1.351 7.656c.901-.15 2.177-.3 3.828-.45 3.904-.45 6.756-.676 8.558-.676v6.306h7.206v-7.206c.451 0 1.051-.075 1.802-.226h1.576c-.15-2.252-.225-4.879-.225-7.882-.3 0-.826.075-1.576.226-.751 0-1.276.075-1.577.225v-28.601h1.802v-7.657zm41.662-2.477h-7.431v4.279h-10.81v22.745h29.276v-22.745h-11.035zm12.837 29.051h-32.88v6.306h4.73l-1.802 7.882h18.692c.3 2.252-.601 3.303-2.703 3.153h-4.053c-2.553-.151-4.354-.226-5.405-.226.751 2.102 1.351 4.429 1.801 6.982 1.352 0 3.454-.075 6.306-.226h3.829c5.254 0 7.957-2.402 8.107-7.206.3-3.153.3-3.528 0-1.126.3-3.453.45-5.93.45-7.432h-17.791l.451-1.801h20.268zm-43.014 10.585c-.9 0-1.576.075-2.026.225v-5.855h3.828v5.404c-.45 0-1.051.075-1.802.226zm-2.026-12.161v-5.405h3.828v5.405zm0-11.936v-5.405h3.828v5.405zm32.203-5.18h4.054v2.478h-4.054zm4.054 8.333v2.477h-4.054v-2.477zm-15.314-5.855v-2.478h3.829v2.478zm0 8.332v-2.477h3.829v2.477zm-202.5394-62.9264c0 1.9521 1.8089 3.0365 5.2801 3.1094 7.0135.2174 15.4745 1.663 15.5455 11.4968.0729 5.7852-4.266 12.0045-15.6184 12.0045-5.2788 0-10.70207-1.0121-16.776912-6.0748l4.483402-7.3753c4.41178 3.6151 8.67781 4.4105 12.43801 4.4834 3.0378.0716 5.4233-1.1573 5.3517-3.0378 0-1.663-1.2302-3.0358-6.0755-3.1803-6.6515-.2903-14.96807-3.0377-14.96807-11.4259 0-8.0985 7.66564-11.4981 15.40287-11.4981 5.4962 0 9.9067 1.374 13.6663 4.6279l-5.1343 6.5083c-2.6758-1.8804-5.2052-2.6023-8.4604-2.6023-3.3983 0-5.1343 1.2283-5.1343 2.9642zm55.2511-4.628c3.1823-4.8453 6.58-6.7257 11.8588-6.7257 7.4482 0 14.2456 3.7615 14.2456 17.0659v19.5244h-10.486v-19.307c0-4.4834-1.2283-7.4483-5.4227-7.4483-4.1221 0-6.5806 3.5423-6.5806 7.5928v19.1625h-10.2679v-19.1625c0-4.7008-1.8792-7.8102-6.1471-7.8102-4.1215 0-6.4355 3.8332-6.4355 7.8818v8.5218 10.5691h-10.413v-10.5691-25.153h9.1112 1.3018v3.2175c2.3204-3.1836 6.0225-4.0129 8.8223-4.0129 3.9041 0 8.0992 1.4457 10.4131 6.6529zm85.2673-5.7846v3.8612c2.386-3.3267 5.641-4.7295 9.618-4.7295 3.399 0 6.22 1.0128 8.75 3.2538l-4.34 8.243c-1.734-1.2282-3.542-1.8075-5.711-1.8075-4.485 0-8.317 2.8932-8.317 8.2436v18.5845h-10.413v-35.6491h9.691zm36.522 22.2716c0 3.7596 2.097 4.7724 4.049 4.7724 1.23 0 3.182-.289 4.339-.8683l2.386 8.6785c-2.602 1.0128-4.7 1.4456-7.521 1.5901-7.736.3619-13.593-3.0358-13.593-14.1727v-13.4508h-6.364v-8.6765h6.364v-3.9719l10.413-6.0077v9.9796h9.038v8.6765h-9.111zm-81.865-4.4834c0 5.929 4.193 9.4003 9.4 9.4003 5.857 0 9.472-4.5551 9.472-9.0384 0-5.1343-3.254-9.8351-9.472-9.8351-5.207 0-9.4 3.5435-9.4 9.4732zm18.872-13.7392v-4.1222h.362 9.762v35.7227h-9.4-.724v-4.298c-2.438 3.6119-7.437 5.0224-10.846 5.0928-10.702.0728-18.439-6.869-18.439-18.6561 0-11.8588 8.171-18.8006 18.728-18.6561 4.483 0 8.678 1.7346 10.557 4.9169zm100.615 13.336 12.782 18.2645h-12.437l-6.554-9.3654-6.534 9.3654h-12.51l12.799-18.2902-12.148-17.3594h12.436l5.93 8.4741 5.931-8.4741h12.436z" fill="#fff" fill-rule="evenodd"/></mask><g mask="url(#a)"><rect fill="#fff" height="159.743" rx="8" width="240.215" y="4.80005"/><ellipse cx="53.4" cy="53.4001" fill="#f23d16" rx="64.2" ry="63"/><ellipse cx="120" cy="135.6" fill="#3d7fff" rx="48" ry="48"/><g fill="#3d17d2"><ellipse cx="45.6" cy="127.2" rx="48" ry="48"/><ellipse cx="45.6" cy="127.2" rx="48" ry="48"/><ellipse cx="45.6" cy="127.2" rx="48" ry="48"/><ellipse cx="45.6" cy="127.2" rx="48" ry="48"/><ellipse cx="45.6" cy="127.2" rx="48" ry="48"/><ellipse cx="45.6" cy="127.2" rx="48" ry="48"/><ellipse cx="45.6" cy="127.2" rx="48" ry="48"/></g><ellipse cx="87.6" cy="3.60005" fill="#ffa572" rx="34.8" ry="34.8"/><ellipse cx="183" cy="73.2001" fill="#17d235" rx="83.4" ry="82.8"/><ellipse cx="136.8" cy="40.8001" fill="#ffad0d" rx="37.2" ry="37.2"/><circle cx="222" cy="64.8" fill="#ff0dbb" r="28.8"/><ellipse cx="224.4" cy="147.6" fill="#7d2dff" rx="30" ry="30"/><ellipse cx="30" cy="151.2" fill="#7d2dff" rx="30" ry="30"/><circle cx="171.6" cy="158.4" fill="#ffd600" r="15.6"/><ellipse cx="172.2" cy="68.3999" fill="#ffd600" rx="24.6" ry="25.2"/></g></svg>

<svg width="240" height="168" viewBox="0 0 240 168" fill="none" xmlns="http://www.w3.org/2000/svg">
<mask id="mask0" mask-type="alpha" maskUnits="userSpaceOnUse" x="0" y="4" width="240" height="161">
<path fill-rule="evenodd" clip-rule="evenodd" d="M240 22.6351L222.165 4.80005L217.069 9.89577L225.185 18.0119H115.87V25.2183H227.225L217.069 35.3744L222.165 40.4701L240 22.6351ZM26.7767 36.028H3.29573V34.8437L13.5049 24.022C16.4042 20.9185 18.3236 18.4274 18.3236 15.9772C18.3236 14.0171 17.3026 12.7103 15.22 12.7103C13.1373 12.7103 11.8306 13.9762 11.463 17.4474H3.86744C4.15329 10.1376 8.56364 6.4215 15.6284 6.4215C22.7747 6.4215 26.5725 10.2601 26.5725 15.6505C26.5725 19.6525 24.3265 22.6744 21.0596 25.8188L16.976 29.78H26.7767V36.028ZM37.7353 22.021C37.7353 27.4523 39.3279 30.025 42.9215 30.025C46.5151 30.025 47.9444 27.3706 47.9444 21.9802V20.7959C47.9444 15.4464 46.3926 12.7512 42.8398 12.7512C39.3279 12.7512 37.7353 15.4055 37.7353 20.7959V22.021ZM56.3159 21.8169C56.3159 31.0867 51.0071 36.518 42.6765 36.518C34.5092 36.518 29.3638 31.2501 29.3638 22.0619V20.8368C29.3638 11.6077 35.1217 6.4215 42.8398 6.4215C50.5171 6.4215 56.3159 11.1994 56.3159 20.6734V21.8169ZM58.1299 36.028H81.6109V29.78H71.8101L75.8938 25.8188C79.1607 22.6744 81.4067 19.6525 81.4067 15.6505C81.4067 10.2601 77.6089 6.4215 70.4625 6.4215C63.3978 6.4215 58.9875 10.1376 58.7016 17.4474H66.2972C66.6647 13.9762 67.9715 12.7103 70.0542 12.7103C72.1368 12.7103 73.1577 14.0171 73.1577 15.9772C73.1577 18.4274 71.2384 20.9185 68.339 24.022L58.1299 34.8437V36.028ZM106.934 36.028H83.4533V34.8437L93.6624 24.022C96.5618 20.9185 98.4812 18.4274 98.4812 15.9772C98.4812 14.0171 97.4602 12.7103 95.3776 12.7103C93.2949 12.7103 91.9882 13.9762 91.6206 17.4474H84.025C84.3109 10.1376 88.7212 6.4215 95.7859 6.4215C102.932 6.4215 106.73 10.2601 106.73 15.6505C106.73 19.6525 104.484 22.6744 101.217 25.8188L97.1335 29.78H106.934V36.028ZM14.9047 109.819H6.34705V119.728H0.942224V127.61H6.34705C4.39531 132.564 2.44357 136.843 0.491821 140.446C1.09236 144.65 1.61783 148.854 2.06823 153.058C3.71971 150.355 5.14598 147.503 6.34705 144.5V163.867H14.9047V143.374L17.6071 146.076L21.6607 138.419C20.7599 137.819 19.4087 136.843 17.6071 135.492L14.9047 133.465V127.61H19.4087V119.728H14.9047V109.819ZM28.8672 124.907C25.4141 128.21 21.8109 130.913 18.0575 133.015C19.8591 135.117 21.5857 137.218 23.2372 139.32C28.3417 135.717 32.6205 132.414 36.0736 129.411L31.3444 124.907H42.6045L38.3256 129.411C40.2774 130.913 42.9047 133.015 46.2077 135.717C48.1594 137.218 49.6608 138.344 50.7117 139.095L55.6661 132.564C52.5133 130.162 49.6608 128.06 47.1085 126.259L45.0817 124.907H54.5401V116.8H42.1541C41.7037 114.548 41.2533 112.221 40.8029 109.819L31.5696 110.495C32.02 112.747 32.5455 114.848 33.146 116.8H20.3095V124.907H28.8672ZM36.7492 145.176C34.7975 142.773 33.0709 139.771 31.5696 136.167L24.138 139.32C25.9396 143.824 28.0414 147.578 30.4436 150.58C27.1406 152.682 22.6366 154.634 16.9315 156.436C18.7331 158.688 20.4597 161.165 22.1111 163.867C28.1165 161.615 32.9959 159.213 36.7492 156.661C40.3524 158.913 44.9315 161.165 50.4865 163.417C51.2372 162.066 52.5133 160.039 54.3149 157.336C54.9155 156.586 55.3659 155.985 55.6661 155.535C49.961 154.033 45.7573 152.382 43.0549 150.58C45.6071 147.428 47.709 143.524 49.3605 138.87L41.4785 136.167C40.4275 139.47 38.8511 142.473 36.7492 145.176ZM63.8545 111.395V163.867H72.6373V161.615H105.967V163.867H114.75V111.395H63.8545ZM101.688 140.221C101.088 139.921 100.562 139.696 100.112 139.545C100.112 140.296 100.037 141.347 99.8867 142.698V144.5C99.7365 145.701 99.2861 146.226 98.5355 146.076C97.6347 146.076 97.1842 145.551 97.1842 144.5V138.645H104.616V131.663H73.9885V138.645H78.9429C79.0931 142.548 76.9912 145.851 72.6373 148.554V119.052H105.967V154.409H78.2673C84.1226 150.355 86.9001 145.1 86.5998 138.645H89.3022V146.527C89.1521 151.031 91.254 153.208 95.6078 153.058H98.0851C102.139 153.058 104.316 151.481 104.616 148.328C105.066 146.377 105.367 144.125 105.517 141.572C104.616 141.422 103.34 140.972 101.688 140.221ZM72.6373 148.554C74.7392 150.956 76.5408 152.907 78.0421 154.409H72.6373V148.554ZM102.589 121.755H76.0153V128.736H102.589V121.755ZM151.314 163.642H142.531V138.194H175.635V163.642H166.853V160.94H151.314V163.642ZM137.126 110.269V118.827H141.63V127.159H137.126V133.915H137.802C138.552 133.765 139.603 133.465 140.954 133.015V141.798L138.928 142.473C138.177 142.623 137.576 142.773 137.126 142.924V156.436C137.126 160.789 135.099 163.041 131.046 163.192C129.094 163.492 126.992 163.642 124.74 163.642C124.74 163.492 124.665 163.117 124.515 162.516C124.214 160.564 123.764 158.237 123.163 155.535H126.767C128.118 155.535 128.718 154.784 128.568 153.283V145.176C128.118 145.326 127.292 145.551 126.091 145.851C125.04 146.151 124.214 146.377 123.614 146.527L122.938 137.068C123.539 136.918 124.515 136.693 125.866 136.393C127.067 136.243 127.968 136.092 128.568 135.942V127.159H123.839V118.827H128.568V110.269H137.126ZM142.306 119.503V111.621H176.086C176.086 112.822 176.011 114.698 175.861 117.251C175.56 122.205 175.41 125.433 175.41 126.934C175.41 132.639 172.407 135.417 166.402 135.267C165.201 135.417 162.424 135.492 158.07 135.492C157.92 134.591 157.619 133.24 157.169 131.438C156.718 129.486 156.343 128.135 156.043 127.385C157.995 127.535 160.472 127.61 163.475 127.61C165.727 127.76 166.777 126.709 166.627 124.457V122.655C166.777 121.454 166.853 120.403 166.853 119.503H157.619C157.469 126.709 153.641 132.865 146.134 137.969C145.533 137.218 144.558 136.167 143.206 134.816C141.705 133.315 140.654 132.189 140.054 131.438C145.759 127.835 148.686 123.856 148.836 119.503H142.306ZM151.314 146.076V153.508H166.853V146.076H151.314ZM184.274 112.521V120.178H186.526V150.58H185.175C184.574 150.73 184.124 150.806 183.824 150.806L185.175 158.462C186.076 158.312 187.352 158.162 189.003 158.012C192.907 157.562 195.759 157.336 197.561 157.336V163.642H204.767V156.436C205.218 156.436 205.818 156.361 206.569 156.21H208.145C207.995 153.958 207.92 151.331 207.92 148.328C207.62 148.328 207.094 148.403 206.344 148.554C205.593 148.554 205.068 148.629 204.767 148.779V120.178H206.569V112.521H184.274ZM225.936 110.044H218.505V114.323H207.695V137.068H236.971V114.323H225.936V110.044ZM238.773 139.095H205.893V145.401H210.623L208.821 153.283H227.513C227.813 155.535 226.912 156.586 224.81 156.436H220.757C218.204 156.285 216.403 156.21 215.352 156.21C216.103 158.312 216.703 160.639 217.153 163.192C218.505 163.192 220.607 163.117 223.459 162.966H227.288C232.542 162.966 235.245 160.564 235.395 155.76C235.695 152.607 235.695 152.232 235.395 154.634C235.695 151.181 235.845 148.704 235.845 147.202H218.054L218.505 145.401H238.773V139.095ZM195.759 149.68C194.859 149.68 194.183 149.755 193.733 149.905V144.05H197.561V149.454C197.111 149.454 196.51 149.529 195.759 149.68ZM193.733 137.519V132.114H197.561V137.519H193.733ZM193.733 125.583V120.178H197.561V125.583H193.733ZM225.936 120.403H229.99V122.881H225.936V120.403ZM229.99 128.736V131.213H225.936V128.736H229.99ZM214.676 122.881V120.403H218.505V122.881H214.676ZM214.676 131.213V128.736H218.505V131.213H214.676ZM12.1366 68.2866C12.1366 70.2387 13.9455 71.3231 17.4167 71.396C24.4302 71.6134 32.8912 73.059 32.9622 82.8928C33.0351 88.678 28.6962 94.8973 17.3438 94.8973C12.065 94.8973 6.64173 93.8852 0.566888 88.8225L5.05029 81.4472C9.46207 85.0623 13.7281 85.8577 17.4883 85.9306C20.5261 86.0022 22.9116 84.7733 22.84 82.8928C22.84 81.2298 21.6098 79.857 16.7645 79.7125C10.113 79.4222 1.79643 76.6748 1.79643 68.2866C1.79643 60.1881 9.46207 56.7885 17.1993 56.7885C22.6955 56.7885 27.106 58.1625 30.8656 61.4164L25.7313 67.9247C23.0555 66.0443 20.5261 65.3224 17.2709 65.3224C13.8726 65.3224 12.1366 66.5507 12.1366 68.2866ZM67.3877 63.6586C70.57 58.8133 73.9677 56.9329 79.2465 56.9329C86.6947 56.9329 93.4921 60.6944 93.4921 73.9988V93.5232H83.0061V74.2162C83.0061 69.7328 81.7778 66.7679 77.5834 66.7679C73.4613 66.7679 71.0028 70.3102 71.0028 74.3607V93.5232H60.7349V74.3607C60.7349 69.6599 58.8557 66.5505 54.5878 66.5505C50.4663 66.5505 48.1523 70.3837 48.1523 74.4323V82.9541V93.5232H37.7393V82.9541V57.8011H46.8505H48.1523V61.0186C50.4727 57.835 54.1748 57.0057 56.9746 57.0057C60.8787 57.0057 65.0738 58.4514 67.3877 63.6586ZM152.655 57.874V61.7352C155.041 58.4085 158.296 57.0057 162.273 57.0057C165.672 57.0057 168.493 58.0185 171.023 60.2595L166.683 68.5025C164.949 67.2743 163.141 66.695 160.972 66.695C156.487 66.695 152.655 69.5882 152.655 74.9386V93.5231H142.242V57.874H151.933H152.655ZM189.177 80.1456C189.177 83.9052 191.274 84.918 193.226 84.918C194.456 84.918 196.408 84.629 197.565 84.0497L199.951 92.7282C197.349 93.741 195.251 94.1738 192.43 94.3183C184.694 94.6802 178.837 91.2825 178.837 80.1456V66.6948H172.473V58.0183H178.837V54.0464L189.25 48.0387V58.0183H198.288V66.6948H189.177V80.1456ZM107.312 75.6622C107.312 81.5912 111.505 85.0625 116.712 85.0625C122.569 85.0625 126.184 80.5074 126.184 76.0241C126.184 70.8898 122.93 66.189 116.712 66.189C111.505 66.189 107.312 69.7325 107.312 75.6622ZM126.184 61.923V57.8008H126.546H136.308V93.5235H126.908H126.184V89.2255C123.746 92.8374 118.747 94.2479 115.338 94.3183C104.636 94.3911 96.899 87.4493 96.899 75.6622C96.899 63.8034 105.07 56.8616 115.627 57.0061C120.11 57.0061 124.305 58.7407 126.184 61.923ZM226.799 75.259L239.581 93.5235H227.144L220.59 84.1581L214.056 93.5235H201.546L214.345 75.2333L202.197 57.8739H214.633L220.563 66.348L226.494 57.8739H238.93L226.799 75.259Z" fill="white"/>
</mask>
<g mask="url(#mask0)">
<rect y="4.80005" width="240.215" height="159.743" rx="8" fill="white"/>
<ellipse cx="53.4" cy="53.4001" rx="64.2" ry="63" fill="#F23D16"/>
<ellipse cx="120" cy="135.6" rx="48" ry="48" fill="#3D7FFF"/>
<ellipse cx="45.6" cy="127.2" rx="48" ry="48" fill="#3D17D2"/>
<ellipse cx="45.6" cy="127.2" rx="48" ry="48" fill="#3D17D2"/>
<ellipse cx="45.6" cy="127.2" rx="48" ry="48" fill="#3D17D2"/>
<ellipse cx="45.6" cy="127.2" rx="48" ry="48" fill="#3D17D2"/>
<ellipse cx="45.6" cy="127.2" rx="48" ry="48" fill="#3D17D2"/>
<ellipse cx="45.6" cy="127.2" rx="48" ry="48" fill="#3D17D2"/>
<ellipse cx="45.6" cy="127.2" rx="48" ry="48" fill="#3D17D2"/>
<ellipse cx="87.6" cy="3.60005" rx="34.8" ry="34.8" fill="#FFA572"/>
<ellipse cx="183" cy="73.2001" rx="83.4" ry="82.8" fill="#17D235"/>
<ellipse cx="136.8" cy="40.8001" rx="37.2" ry="37.2" fill="#FFAD0D"/>
<circle cx="222" cy="64.8" r="28.8" fill="#FF0DBB"/>
<ellipse cx="224.4" cy="147.6" rx="30" ry="30" fill="#7D2DFF"/>
<ellipse cx="30" cy="151.2" rx="30" ry="30" fill="#7D2DFF"/>
<circle cx="171.6" cy="158.4" r="15.6" fill="#FFD600"/>
<ellipse cx="172.2" cy="68.3999" rx="24.6" ry="25.2" fill="#FFD600"/>
</g>
</svg>
